X: 23
T: A nar gu li ba la
%%abc-version 2.0
%%abcx-abcm2ps-target-version 5.9.1 (29 Sep 2008)
%%abc-creator hum2abc beta
%%abcx-conversion-date 2013/10/02 07:44:27
%%abc-edited-by Helmut Schaffrath
%%humdrum-veritas 2770812076
%%humdrum-veritas-data 1288052437
%%continueall 1
%%barnumbers 0
L: 1/8
M: 2/4
K: C
z A,/ D/ [I:setbarnb 1]| 
D> D d d | 
d c/ d/ c B/ c/ | 
d> c e d | 
d2G G | 
A/ B/ G A3/ B/ | 
c/ d/ B/ c< A A/ | 
c B c e | 
d B/ d/ c A | 
A4- | 
A4- | 
A4- | 
Az2A,/ D/ | 
D D/ D/ D ^F/ G/ | 
B> d c B | 
B A A ^F | 
G ^F A3/ G/ | 
G2C C | 
D/ E/ C D3/ E/ | 
F/ G/ E/ F< D D/ | 
F E F A | 
G E F3/ D/ | 
D4- | 
D4- | 
D4- | 
Dz2A,/ D/ | 
D D/ D/ D ^F/ G/ | 
B> d c B | 
B A A ^F | 
G ^F A3/ G/ | 
G2C C | 
D/ E/ C D3/ E/ | 
F/ G/ E/ F< D D/ | 
F E F A | 
G E F3/ D/ | 
D4- | 
D4- | 
D4- | 
Dz3 |]  



